source/assets/icons/inlined/academy-logo.svg

<svg width="203" height="40" viewBox="0 0 203 40" fill="none" xmlns="http://www.w3.org/2000/svg">
<path d="M53.3152 28.6391C52.2259 28.6391 51.3418 28.3528 50.6628 27.78C49.998 27.193 49.6655 26.4198 49.6655 25.4604C49.6655 24.4295 50.0262 23.6563 50.7477 23.1408C51.455 22.6397 52.5654 22.2889 54.079 22.0884L56.6465 21.7233V21.3582C56.6465 20.7568 56.5192 20.3129 56.2646 20.0265C56.01 19.7402 55.6139 19.597 55.0763 19.597C54.5529 19.597 54.1427 19.733 53.8456 20.0051C53.5627 20.2771 53.4071 20.6709 53.3788 21.1863H50.005C50.0899 19.9979 50.5779 19.0672 51.4691 18.3942C52.3745 17.7213 53.5839 17.3848 55.0976 17.3848C56.8092 17.3848 58.0611 17.7427 58.8533 18.4587C59.6455 19.1603 60.0415 20.2843 60.0415 21.8307V25.396C60.0415 26.699 60.1406 27.6941 60.3386 28.3814H57.0285C56.9436 27.9518 56.887 27.3863 56.8587 26.6847C56.5899 27.286 56.1373 27.7657 55.5007 28.1237C54.8641 28.4673 54.1356 28.6391 53.3152 28.6391ZM54.5883 26.4484C55.239 26.4484 55.7624 26.2479 56.1585 25.847C56.5546 25.4461 56.7526 24.9235 56.7526 24.2791V23.42L54.9278 23.7207C54.3054 23.8353 53.8456 24.0142 53.5486 24.2577C53.2515 24.4868 53.103 24.8018 53.103 25.2027C53.103 25.575 53.2374 25.8757 53.5061 26.1048C53.7749 26.3338 54.1356 26.4484 54.5883 26.4484Z" fill="black"/>
<path d="M60.6068 17.6425H62.4529V15.0652L65.8479 13.7335V17.6425H68.3729V19.9406H65.8479V24.1288C65.8479 25.217 66.3642 25.7611 67.3969 25.7611C67.6939 25.7611 68.0193 25.7253 68.3729 25.6537V28.3814C67.6232 28.5246 66.9796 28.5962 66.442 28.5962C65.0699 28.5962 64.0584 28.2883 63.4077 27.6726C62.7712 27.0569 62.4529 26.1477 62.4529 24.9449V19.9406H60.6068V17.6425Z" fill="black"/>
<path d="M69.911 17.6425H73.3272V28.3814H69.911V17.6425ZM69.8685 12.9603H73.4121V16.0961H69.8685V12.9603Z" fill="black"/>
<path d="M80.5187 28.6391C79.4153 28.6391 78.4393 28.41 77.5905 27.9518C76.7418 27.4793 76.084 26.8207 75.6172 25.9759C75.1645 25.1311 74.9382 24.1431 74.9382 23.0119C74.9382 21.2651 75.4403 19.8905 76.4447 18.8882C77.4491 17.8859 78.8212 17.3848 80.5612 17.3848C81.9475 17.3848 83.0791 17.7141 83.9562 18.3727C84.8474 19.0314 85.392 19.9693 85.59 21.1863L82.386 21.8521C82.287 21.2221 82.0748 20.7425 81.7494 20.4131C81.4241 20.0838 80.9997 19.9191 80.4763 19.9191C79.8256 19.9191 79.3163 20.184 78.9485 20.7138C78.5807 21.2436 78.3968 21.9739 78.3968 22.9046C78.3968 23.9212 78.5807 24.7087 78.9485 25.2671C79.3163 25.8112 79.8327 26.0833 80.4975 26.0833C81.0209 26.0833 81.4453 25.9115 81.7706 25.5678C82.096 25.2242 82.3082 24.7302 82.4072 24.0858L85.59 24.7946C85.4061 25.9687 84.8544 26.9066 83.935 27.6082C83.0155 28.2955 81.8767 28.6391 80.5187 28.6391Z" fill="black"/>
<path d="M89.9318 28.6391C88.8425 28.6391 87.9584 28.3528 87.2794 27.78C86.6146 27.193 86.2821 26.4198 86.2821 25.4604C86.2821 24.4295 86.6429 23.6563 87.3643 23.1408C88.0716 22.6397 89.182 22.2889 90.6957 22.0884L93.2631 21.7233V21.3582C93.2631 20.7568 93.1358 20.3129 92.8812 20.0265C92.6266 19.7402 92.2305 19.597 91.6929 19.597C91.1695 19.597 90.7593 19.733 90.4622 20.0051C90.1793 20.2771 90.0237 20.6709 89.9954 21.1863H86.6216C86.7065 19.9979 87.1945 19.0672 88.0857 18.3942C88.9911 17.7213 90.2005 17.3848 91.7142 17.3848C93.4258 17.3848 94.6777 17.7427 95.4699 18.4587C96.2621 19.1603 96.6581 20.2843 96.6581 21.8307V25.396C96.6581 26.699 96.7572 27.6941 96.9552 28.3814H93.6451C93.5602 27.9518 93.5036 27.3863 93.4753 26.6847C93.2065 27.286 92.7539 27.7657 92.1173 28.1237C91.4808 28.4673 90.7522 28.6391 89.9318 28.6391ZM91.2049 26.4484C91.8556 26.4484 92.379 26.2479 92.7751 25.847C93.1712 25.4461 93.3692 24.9235 93.3692 24.2791V23.42L91.5444 23.7207C90.922 23.8353 90.4622 24.0142 90.1652 24.2577C89.8681 24.4868 89.7196 24.8018 89.7196 25.2027C89.7196 25.575 89.854 25.8757 90.1227 26.1048C90.3915 26.3338 90.7522 26.4484 91.2049 26.4484Z" fill="black"/>
<path d="M111.964 24.8161H106.405L105.259 28.3814H101.673L107.148 13.1322H111.243L116.717 28.3814H113.11L111.964 24.8161ZM111.137 22.2602L109.757 18.0076C109.644 17.6783 109.538 17.3418 109.439 16.9982C109.354 16.6402 109.277 16.2608 109.206 15.8598H109.163C109.093 16.2608 109.008 16.6402 108.909 16.9982C108.824 17.3418 108.725 17.6783 108.612 18.0076L107.232 22.2602H111.137Z" fill="black"/>
<path d="M122.44 28.6391C121.337 28.6391 120.361 28.41 119.512 27.9518C118.663 27.4793 118.005 26.8207 117.538 25.9759C117.086 25.1311 116.859 24.1431 116.859 23.0119C116.859 21.2651 117.362 19.8905 118.366 18.8882C119.37 17.8859 120.743 17.3848 122.482 17.3848C123.869 17.3848 125 17.7141 125.878 18.3727C126.769 19.0314 127.313 19.9693 127.511 21.1863L124.307 21.8521C124.208 21.2221 123.996 20.7425 123.671 20.4131C123.345 20.0838 122.921 19.9191 122.398 19.9191C121.747 19.9191 121.238 20.184 120.87 20.7138C120.502 21.2436 120.318 21.9739 120.318 22.9046C120.318 23.9212 120.502 24.7087 120.87 25.2671C121.238 25.8112 121.754 26.0833 122.419 26.0833C122.942 26.0833 123.367 25.9115 123.692 25.5678C124.017 25.2242 124.23 24.7302 124.329 24.0858L127.511 24.7946C127.327 25.9687 126.776 26.9066 125.856 27.6082C124.937 28.2955 123.798 28.6391 122.44 28.6391Z" fill="black"/>
<path d="M131.853 28.6391C130.764 28.6391 129.88 28.3528 129.201 27.78C128.536 27.193 128.203 26.4198 128.203 25.4604C128.203 24.4295 128.564 23.6563 129.286 23.1408C129.993 22.6397 131.103 22.2889 132.617 22.0884L135.184 21.7233V21.3582C135.184 20.7568 135.057 20.3129 134.803 20.0265C134.548 19.7402 134.152 19.597 133.614 19.597C133.091 19.597 132.681 19.733 132.384 20.0051C132.101 20.2771 131.945 20.6709 131.917 21.1863H128.543C128.628 19.9979 129.116 19.0672 130.007 18.3942C130.912 17.7213 132.122 17.3848 133.635 17.3848C135.347 17.3848 136.599 17.7427 137.391 18.4587C138.183 19.1603 138.579 20.2843 138.579 21.8307V25.396C138.579 26.699 138.678 27.6941 138.877 28.3814H135.566C135.482 27.9518 135.425 27.3863 135.397 26.6847C135.128 27.286 134.675 27.7657 134.039 28.1237C133.402 28.4673 132.674 28.6391 131.853 28.6391ZM133.126 26.4484C133.777 26.4484 134.3 26.2479 134.696 25.847C135.093 25.4461 135.291 24.9235 135.291 24.2791V23.42L133.466 23.7207C132.843 23.8353 132.384 24.0142 132.087 24.2577C131.789 24.4868 131.641 24.8018 131.641 25.2027C131.641 25.575 131.775 25.8757 132.044 26.1048C132.313 26.3338 132.674 26.4484 133.126 26.4484Z" fill="black"/>
<path d="M144.272 28.6391C143.438 28.6391 142.695 28.41 142.044 27.9518C141.408 27.4793 140.913 26.8207 140.559 25.9759C140.205 25.1311 140.028 24.1574 140.028 23.0549C140.028 21.9237 140.212 20.9358 140.58 20.091C140.948 19.2319 141.464 18.566 142.129 18.0935C142.808 17.621 143.586 17.3848 144.463 17.3848C145.171 17.3848 145.779 17.528 146.288 17.8143C146.797 18.1007 147.186 18.5231 147.455 19.0815V12.81H150.85V28.3814H147.625V26.5343C147.356 27.1786 146.925 27.6941 146.33 28.0807C145.736 28.453 145.05 28.6391 144.272 28.6391ZM145.609 26.2551C146.189 26.2551 146.649 26.0117 146.988 25.5249C147.328 25.038 147.498 24.3722 147.498 23.5274V22.6039C147.498 21.7018 147.328 21.0074 146.988 20.5205C146.649 20.0194 146.175 19.7688 145.567 19.7688C144.916 19.7688 144.414 20.048 144.06 20.6064C143.706 21.1649 143.53 21.9595 143.53 22.9905C143.53 24.0071 143.713 24.8089 144.081 25.396C144.449 25.9687 144.958 26.2551 145.609 26.2551Z" fill="black"/>
<path d="M163.183 23.7851H155.82C155.834 24.5154 156.061 25.0953 156.499 25.5249C156.952 25.9544 157.539 26.1692 158.26 26.1692C159.307 26.1692 160.078 25.668 160.573 24.6657L163.077 25.8255C162.653 26.7133 162.009 27.4077 161.146 27.9089C160.297 28.3957 159.321 28.6391 158.218 28.6391C156.464 28.6391 155.085 28.1523 154.08 27.1786C153.09 26.205 152.595 24.8519 152.595 23.1193C152.595 21.9595 152.814 20.9501 153.253 20.091C153.691 19.2175 154.314 18.5517 155.12 18.0935C155.941 17.621 156.895 17.3848 157.985 17.3848C159.654 17.3848 160.934 17.8573 161.825 18.8023C162.731 19.733 163.183 21.0503 163.183 22.7542V23.7851ZM159.894 21.7662C159.894 21.0074 159.725 20.4275 159.385 20.0265C159.046 19.6256 158.558 19.4252 157.921 19.4252C157.27 19.4252 156.761 19.6399 156.393 20.0695C156.04 20.4847 155.849 21.0789 155.82 21.8521H159.894V21.7662Z" fill="black"/>
<path d="M168.16 17.6425V19.5755C168.499 18.8309 168.93 18.2797 169.454 17.9217C169.991 17.5494 170.649 17.3633 171.427 17.3633C172.177 17.3633 172.799 17.5494 173.295 17.9217C173.79 18.2797 174.172 18.8381 174.44 19.597C175.19 18.1079 176.322 17.3633 177.835 17.3633C178.868 17.3633 179.667 17.7141 180.233 18.4157C180.813 19.1173 181.103 20.0981 181.103 21.3582V28.3814H177.708V22.0884C177.708 21.3725 177.595 20.8499 177.369 20.5205C177.142 20.1769 176.781 20.0051 176.286 20.0051C175.777 20.0051 175.381 20.1984 175.098 20.585C174.829 20.9572 174.695 21.5013 174.695 22.2173V28.3814H171.3V22.0669C171.3 20.6923 170.833 20.0051 169.899 20.0051C169.39 20.0051 168.994 20.1984 168.711 20.585C168.442 20.9716 168.308 21.5228 168.308 22.2387V28.3814H164.892V17.6425H168.16Z" fill="black"/>
<path d="M183.611 32.7199C183.413 32.7199 182.946 32.677 182.21 32.591V30.0567C182.734 30.1283 183.13 30.1641 183.399 30.1641C183.964 30.1641 184.41 30.0495 184.735 29.8204C185.061 29.6056 185.294 29.2548 185.436 28.768L185.584 28.317L181.531 17.6425H185.223L187.091 24.1717C187.204 24.587 187.282 25.0022 187.324 25.4175H187.388C187.402 25.1454 187.487 24.7302 187.642 24.1717L189.361 17.6425H192.777L188.979 28.8539C188.512 30.2285 187.855 31.2165 187.006 31.8178C186.171 32.4192 185.04 32.7199 183.611 32.7199Z" fill="black"/>
<path fill-rule="evenodd" clip-rule="evenodd" d="M25.4091 14.9696V40C28.3405 37.8297 32.3903 35.5521 36.4942 33.7622C40.4399 32.1348 44.5438 30.8879 47.9003 30.7253V24.1781C47.7736 24.5219 47.6243 24.8524 47.4523 25.1697C46.8143 26.3585 45.9008 27.2831 44.7118 27.9436C43.5374 28.604 42.1599 28.9342 40.5795 28.9342H33.8807V13.3038H40.623C42.1889 13.3038 43.5591 13.6267 44.7336 14.2724C45.9081 14.9035 46.8143 15.8061 47.4523 16.9802C47.6243 17.2859 47.7736 17.6038 47.9003 17.934V5.15344C40.9177 5.5875 30.4189 10.7931 25.4091 14.9696ZM22.4912 14.9696C17.4814 10.7931 6.92836 5.586 0 5.15344V30.7253C7.03536 31.1042 16.8423 35.8235 22.4912 40V14.9696ZM20.5198 11.172C17.2146 6.34672 10.7656 0.596636 5.06399 0V4.12275C10.2863 5.47861 16.1491 8.29921 20.5198 11.172ZM27.3277 11.1735C31.697 8.29921 37.5598 5.47861 42.8363 4.12275V0C37.1333 0.596636 30.6314 6.34671 27.3277 11.1735ZM42.8631 24.3111C42.2687 25.2064 41.4349 25.654 40.362 25.654H38.4263V16.584H40.4055C41.5074 16.584 42.3412 16.9949 42.9066 17.8168C43.4721 18.624 43.7549 19.6807 43.7549 20.9869C43.7549 22.3078 43.4576 23.4159 42.8631 24.3111Z" fill="black"/>
</svg>

<svg xmlns="http://www.w3.org/2000/svg" fill="none" viewBox="0 0 203 40"><path fill="#000" d="M53.3 28.6c-1 0-2-.2-2.6-.8a3 3 0 0 1-1-2.3c0-1 .3-1.8 1-2.4.8-.5 1.9-.8 3.4-1l2.5-.4v-.3c0-.6 0-1-.3-1.4-.3-.3-.7-.4-1.2-.4s-1 .1-1.3.4c-.2.3-.4.7-.4 1.2H50c0-1.2.6-2.1 1.5-2.8a6 6 0 0 1 3.6-1c1.7 0 3 .3 3.8 1 .7.8 1.1 1.9 1.1 3.4v3.6c0 1.3.1 2.3.3 3H57l-.1-1.7a3 3 0 0 1-1.4 1.4c-.6.4-1.4.5-2.2.5zm1.3-2.2c.6 0 1.2-.2 1.6-.6.4-.4.6-.9.6-1.5v-.9l-1.9.3a3 3 0 0 0-1.4.6c-.2.2-.4.5-.4.9s.1.7.4.9c.3.2.6.3 1 .3zM60.6 17.6h1.9v-2.5l3.3-1.4v4h2.6v2.2h-2.6v4.2c0 1.1.6 1.7 1.6 1.7l1-.1v2.7l-2 .2c-1.3 0-2.3-.3-3-1-.6-.5-1-1.5-1-2.7v-5h-1.8v-2.3zM70 17.6h3.3v10.8H70V17.6zm-.1-4.6h3.5V16H70V13zM80.5 28.6a6 6 0 0 1-3-.6 5 5 0 0 1-1.9-2c-.4-.9-.7-1.9-.7-3 0-1.7.5-3.1 1.5-4.1 1-1 2.4-1.5 4.2-1.5 1.3 0 2.5.3 3.4 1 .8.6 1.4 1.6 1.6 2.8l-3.2.7c-.1-.7-.3-1.2-.7-1.5-.3-.3-.7-.5-1.2-.5-.7 0-1.2.3-1.6.8-.3.5-.5 1.3-.5 2.2 0 1 .2 1.8.5 2.4.4.5 1 .8 1.6.8.5 0 1-.2 1.3-.5.3-.4.5-.9.6-1.5l3.2.7a4.2 4.2 0 0 1-1.7 2.8c-.9.7-2 1-3.4 1zM90 28.6c-1.2 0-2-.2-2.7-.8a3 3 0 0 1-1-2.3c0-1 .3-1.8 1-2.4.8-.5 1.9-.8 3.4-1l2.6-.4v-.3c0-.6-.2-1-.4-1.4-.3-.3-.7-.4-1.2-.4s-1 .1-1.2.4c-.3.3-.5.7-.5 1.2h-3.4c.1-1.2.6-2.1 1.5-2.8a6 6 0 0 1 3.6-1c1.7 0 3 .3 3.8 1 .8.8 1.2 1.9 1.2 3.4v3.6c0 1.3 0 2.3.3 3h-3.4l-.1-1.7A3 3 0 0 1 92 28c-.6.4-1.3.5-2.2.5zm1.2-2.2c.7 0 1.2-.2 1.6-.6.4-.4.6-.9.6-1.5v-.9l-1.9.3a3 3 0 0 0-1.3.6c-.3.2-.5.5-.5.9s.2.7.4.9c.3.2.7.3 1.1.3zM112 24.8h-5.6l-1.1 3.6h-3.6L107 13h4.1l5.5 15.3h-3.6l-1.1-3.6zm-.9-2.5l-1.3-4.3a21.2 21.2 0 0 1-.6-2.1 12 12 0 0 1-.6 2.1l-1.4 4.3h4zM122.4 28.6a6 6 0 0 1-2.9-.6 5 5 0 0 1-2-2c-.4-.9-.6-1.9-.6-3 0-1.7.5-3.1 1.5-4.1 1-1 2.3-1.5 4-1.5 1.5 0 2.6.3 3.5 1 .9.6 1.4 1.6 1.6 2.8l-3.2.7c0-.7-.3-1.2-.6-1.5-.4-.3-.8-.5-1.3-.5-.7 0-1.2.3-1.5.8-.4.5-.6 1.3-.6 2.2 0 1 .2 1.8.6 2.4.3.5.9.8 1.5.8.5 0 1-.2 1.3-.5.3-.4.5-.9.6-1.5l3.2.7a4.2 4.2 0 0 1-1.6 2.8c-1 .7-2.1 1-3.5 1zM131.9 28.6c-1.1 0-2-.2-2.7-.8a3 3 0 0 1-1-2.3c0-1 .4-1.8 1-2.4.8-.5 1.9-.8 3.4-1l2.6-.4v-.3c0-.6-.1-1-.4-1.4-.3-.3-.6-.4-1.2-.4-.5 0-1 .1-1.2.4-.3.3-.5.7-.5 1.2h-3.4c.1-1.2.6-2.1 1.5-2.8a6 6 0 0 1 3.6-1c1.7 0 3 .3 3.8 1 .8.8 1.2 1.9 1.2 3.4v3.6c0 1.3 0 2.3.3 3h-3.3l-.2-1.7A3 3 0 0 1 134 28c-.6.4-1.3.5-2.1.5zm1.2-2.2c.7 0 1.2-.2 1.6-.6.4-.4.6-.9.6-1.5v-.9l-1.8.3a3 3 0 0 0-1.4.6c-.3.2-.5.5-.5.9s.2.7.4.9c.3.2.7.3 1.1.3zM144.3 28.6c-.9 0-1.6-.2-2.3-.6a4.6 4.6 0 0 1-1.4-2c-.4-.9-.6-1.8-.6-3 0-1 .2-2 .6-3 .3-.8.9-1.4 1.5-2a4 4 0 0 1 2.4-.6c.7 0 1.3.1 1.8.4.5.3.9.7 1.2 1.3v-6.3h3.3v15.6h-3.2v-1.9c-.2.7-.7 1.2-1.3 1.6-.6.4-1.3.5-2 .5zm1.3-2.3c.6 0 1-.3 1.4-.8.3-.5.5-1.1.5-2v-.9c0-.9-.2-1.6-.5-2-.4-.6-.8-.8-1.4-.8-.7 0-1.2.2-1.5.8-.4.6-.6 1.4-.6 2.4s.2 1.8.6 2.4c.3.6.9.9 1.5.9zM163.2 23.8h-7.4c0 .7.3 1.3.7 1.7.5.5 1 .7 1.8.7 1 0 1.8-.5 2.3-1.5l2.5 1.1c-.4 1-1 1.6-2 2.1-.8.5-1.8.7-2.9.7-1.7 0-3.1-.4-4.1-1.4-1-1-1.5-2.3-1.5-4 0-1.2.2-2.2.7-3.1.4-.9 1-1.5 1.8-2s1.8-.7 2.9-.7c1.7 0 3 .5 3.8 1.4 1 1 1.4 2.3 1.4 4v1zm-3.3-2c0-.8-.2-1.4-.5-1.8-.4-.4-.8-.6-1.5-.6-.6 0-1.1.2-1.5.7-.4.4-.6 1-.6 1.8h4v-.1zM168.2 17.6v2c.3-.8.7-1.3 1.3-1.7.5-.4 1.1-.5 2-.5a3 3 0 0 1 1.8.5c.5.4.9 1 1.1 1.7.8-1.5 2-2.2 3.4-2.2 1 0 1.9.3 2.4 1 .6.7.9 1.7.9 3v7h-3.4V22c0-.7-.1-1.3-.3-1.6-.3-.3-.6-.5-1.1-.5-.5 0-1 .2-1.2.6-.3.4-.4.9-.4 1.6v6.2h-3.4V22c0-1.4-.5-2-1.4-2-.5 0-1 .1-1.2.5-.3.4-.4 1-.4 1.6v6.2H165V17.6h3.3zM183.6 32.7l-1.4-.1V30h1.2c.6 0 1 0 1.3-.3.4-.2.6-.5.7-1l.2-.5-4-10.7h3.6l1.9 6.6.2 1.2.3-1.2 1.8-6.6h3.4L189 29a5.8 5.8 0 0 1-2 3c-.8.5-2 .8-3.4.8z"/><path fill="#000" fill-rule="evenodd" d="M25.4 15v25c3-2.2 7-4.4 11-6.2 4-1.7 8.1-3 11.5-3v-6.6l-.4 1a6.8 6.8 0 0 1-2.8 2.7c-1.2.7-2.5 1-4.1 1h-6.7V13.3h6.7c1.6 0 3 .3 4.1 1a6.6 6.6 0 0 1 3.2 3.6V5.2c-7 .4-17.5 5.6-22.5 9.8zm-3 0C17.5 10.8 7 5.6 0 5.2v25.5c7 .4 16.8 5.1 22.5 9.3V15zm-1.9-3.8C17.2 6.3 10.8.6 5.1 0v4.1c5.2 1.4 11 4.2 15.4 7zm6.8 0a55.4 55.4 0 0 1 15.5-7V0c-5.7.6-12.2 6.3-15.5 11.2zM43 24.3c-.6 1-1.5 1.4-2.5 1.4h-2v-9.1h2c1.1 0 2 .4 2.5 1.2.6.8.9 1.9.9 3.2 0 1.3-.3 2.4-1 3.3z" clip-rule="evenodd"/></svg>
